src/pos-icons/sticker-alert-outline.svg

<svg height="24" viewBox="0 0 24 24" width="24" xmlns="http://www.w3.org/2000/svg"><path d="m11 14h2v2h-2zm0-1.5h2v-4.5h-2zm11-7v10.5l-6 6h-10.5c-1.9 0-3.5-1.6-3.5-3.5v-13c0-1.9 1.6-3.5 3.5-3.5h13c1.9 0 3.5 1.6 3.5 3.5m-2 .3c0-1-.8-1.8-1.8-1.8h-12.4c-1 0-1.8.8-1.8 1.8v12.5c0 1 .8 1.8 1.8 1.8h9.2v-1.5c0-1.9 1.6-3.5 3.5-3.5h1.5z"/></svg>

<?xml version="1.0" encoding="UTF-8"?><!DOCTYPE svg PUBLIC "-//W3C//DTD SVG 1.1//EN" "http://www.w3.org/Graphics/SVG/1.1/DTD/svg11.dtd"><svg xmlns="http://www.w3.org/2000/svg" xmlns:xlink="http://www.w3.org/1999/xlink" version="1.1" id="mdi-sticker-alert-outline" width="24" height="24" viewBox="0 0 24 24"><path d="M11 14H13V16H11V14M11 12.5H13V8H11V12.5M22 5.5V16L16 22H5.5C3.6 22 2 20.4 2 18.5V5.5C2 3.6 3.6 2 5.5 2H18.5C20.4 2 22 3.6 22 5.5M20 5.8C20 4.8 19.2 4 18.2 4H5.8C4.8 4 4 4.8 4 5.8V18.3C4 19.3 4.8 20.1 5.8 20.1H15V18.6C15 16.7 16.6 15.1 18.5 15.1H20V5.8Z" /></svg>
